Numix-Square/48x48/apps/security-medium.svg

<svg xmlns="http://www.w3.org/2000/svg" xmlns:xlink="http://www.w3.org/1999/xlink" width="48" viewBox="0 0 13.546667 13.546667" height="48">
 <defs>
  <linearGradient id="0">
   <stop stop-color="#eaeaea"/>
   <stop offset="1" stop-color="#fafafa"/>
  </linearGradient>
  <linearGradient id="1">
   <stop stop-color="#e24674"/>
   <stop offset="1" stop-color="#7f2641"/>
  </linearGradient>
  <linearGradient xlink:href="#1" id="2" x1="6.778" y1="3.487" x2="6.769" y2="10.518" gradientUnits="userSpaceOnUse" gradientTransform="matrix(3.7297966,0,0,3.4015747,-1.263157,-2.0344487e-6)"/>
  <linearGradient gradientTransform="matrix(0.28222223,0,0,0.28222223,0,-283.45334)" xlink:href="#0" id="3" y1="1050.36" x2="0" y2="1006.36" gradientUnits="userSpaceOnUse"/>
 </defs>
 <g transform="matrix(0.28222223,0,0,0.28222223,0,-283.45334)">
  <path transform="translate(0,1004.3622)" d="M 5.1875,1 C 2.8707723,1 1,2.8707723 1,5.1875 l 0,37.625 C 1,45.129228 2.8707723,47 5.1875,47 l 37.625,0 C 45.129228,47 47,45.129228 47,42.8125 L 47,5.1875 C 47,2.8707723 45.129228,1 42.8125,1 L 5.1875,1 z m 0.1875,0.25 37.25,0 c 2.291546,0 4.125,1.8334541 4.125,4.125 l 0,37.25 c 0,2.291546 -1.833454,4.125 -4.125,4.125 l -37.25,0 C 3.0834541,46.75 1.25,44.916546 1.25,42.625 l 0,-37.25 C 1.25,3.0834541 3.0834541,1.25 5.375,1.25 z" opacity="0.05"/>
  <path transform="translate(0,1004.3622)" d="M 5.375,1.25 C 3.0834541,1.25 1.25,3.0834541 1.25,5.375 l 0,37.25 c 0,2.291546 1.8334541,4.125 4.125,4.125 l 37.25,0 c 2.291546,0 4.125,-1.833454 4.125,-4.125 l 0,-37.25 C 46.75,3.0834541 44.916546,1.25 42.625,1.25 l -37.25,0 z m 0.21875,0.25 36.8125,0 C 44.672614,1.5 46.5,3.3273859 46.5,5.59375 l 0,36.8125 C 46.5,44.672614 44.672614,46.5 42.40625,46.5 l -36.8125,0 C 3.3273859,46.5 1.5,44.672614 1.5,42.40625 l 0,-36.8125 C 1.5,3.3273859 3.3273859,1.5 5.59375,1.5 z" opacity="0.1"/>
  <path transform="translate(0,1004.3622)" d="M 5.59375,1.5 C 3.3273859,1.5 1.5,3.3273859 1.5,5.59375 l 0,36.8125 C 1.5,44.672614 3.3273859,46.5 5.59375,46.5 l 36.8125,0 C 44.672614,46.5 46.5,44.672614 46.5,42.40625 l 0,-36.8125 C 46.5,3.3273859 44.672614,1.5 42.40625,1.5 l -36.8125,0 z m 0.09375,0.125 36.625,0 c 2.253773,0 4.0625,1.8087269 4.0625,4.0625 l 0,36.625 c 0,2.253773 -1.808727,4.0625 -4.0625,4.0625 l -36.625,0 c -2.2537731,0 -4.0625,-1.808727 -4.0625,-4.0625 l 0,-36.625 C 1.625,3.4337269 3.4337269,1.625 5.6875,1.625 z" opacity="0.2"/>
  <path transform="translate(0,1004.3622)" d="M 5.6875,1.625 C 3.4337269,1.625 1.625,3.4337269 1.625,5.6875 l 0,36.625 c 0,2.253773 1.8087269,4.0625 4.0625,4.0625 l 36.625,0 c 2.253773,0 4.0625,-1.808727 4.0625,-4.0625 l 0,-36.625 c 0,-2.2537731 -1.808727,-4.0625 -4.0625,-4.0625 l -36.625,0 z m 0.09375,0.125 36.4375,0 c 2.241182,0 4.03125,1.7900679 4.03125,4.03125 l 0,36.4375 c 0,2.241182 -1.790068,4.03125 -4.03125,4.03125 l -36.4375,0 C 3.5400679,46.25 1.75,44.459932 1.75,42.21875 l 0,-36.4375 C 1.75,3.5400679 3.5400679,1.75 5.78125,1.75 z" opacity="0.3"/>
  <path transform="translate(0,1004.3622)" d="M 5.78125,1.75 C 3.5400679,1.75 1.75,3.5400679 1.75,5.78125 l 0,36.4375 c 0,2.241182 1.7900679,4.03125 4.03125,4.03125 l 36.4375,0 c 2.241182,0 4.03125,-1.790068 4.03125,-4.03125 l 0,-36.4375 C 46.25,3.5400679 44.459932,1.75 42.21875,1.75 l -36.4375,0 z m 0.125,0.125 36.1875,0 c 2.228591,0 4.03125,1.802659 4.03125,4.03125 l 0,36.1875 c 0,2.228591 -1.802659,4.03125 -4.03125,4.03125 l -36.1875,0 C 3.677659,46.125 1.875,44.322341 1.875,42.09375 l 0,-36.1875 C 1.875,3.677659 3.677659,1.875 5.90625,1.875 z" opacity="0.4"/>
  <rect width="44.25" height="44.25" x="1.875" y="1006.24" rx="4.02" opacity="0.5"/>
 </g>
 <rect width="12.418" height="12.418" x="0.564" y="0.564" rx="1.129" fill="url(#3)"/>
 <path d="M 14.03125 12 C 13.978728 15.416736 13.981796 18.833259 14.03125 22.25 C 14.078511 25.541103 14.251574 28.1163 15.6875 30.125 C 17.416862 32.544693 20.293258 34.284325 24 36 C 27.70606 34.284325 30.583138 32.544349 32.3125 30.125 C 33.748098 28.116992 33.920637 25.541452 33.96875 22.25 C 34.018204 18.833259 34.021272 15.416736 33.96875 12 L 14.03125 12 z M 24 13 C 24.552285 13 25 13.447715 25 14 C 25 14.552285 24.552285 15 24 15 C 23.447715 15 23 14.552285 23 14 C 23 13.447715 23.447715 13 24 13 z M 24 17 C 24.552285 17 25 17.447715 25 18 C 25 18.552285 24.552285 19 24 19 C 23.447715 19 23 18.552285 23 18 C 23 17.447715 23.447715 17 24 17 z M 16 21 C 16.552285 21 17 21.447715 17 22 C 17 22.552285 16.552285 23 16 23 C 15.447715 23 15 22.552285 15 22 C 15 21.447715 15.447715 21 16 21 z M 20 21 C 20.552285 21 21 21.447715 21 22 C 21 22.552285 20.552285 23 20 23 C 19.447715 23 19 22.552285 19 22 C 19 21.447715 19.447715 21 20 21 z M 24 21 C 24.552285 21 25 21.447715 25 22 C 25 22.552285 24.552285 23 24 23 C 23.447715 23 23 22.552285 23 22 C 23 21.447715 23.447715 21 24 21 z M 28 21 C 28.552285 21 29 21.447715 29 22 C 29 22.552285 28.552285 23 28 23 C 27.447715 23 27 22.552285 27 22 C 27 21.447715 27.447715 21 28 21 z M 32 21 C 32.552285 21 33 21.447715 33 22 C 33 22.552285 32.552285 23 32 23 C 31.447715 23 31 22.552285 31 22 C 31 21.447715 31.447715 21 32 21 z M 24 25 C 24.552285 25 25 25.447715 25 26 C 25 26.552285 24.552285 27 24 27 C 23.447715 27 23 26.552285 23 26 C 23 25.447715 23.447715 25 24 25 z M 24 29 C 24.552285 29 25 29.447715 25 30 C 25 30.552285 24.552285 31 24 31 C 23.447715 31 23 30.552285 23 30 C 23 29.447715 23.447715 29 24 29 z M 24 33 C 24.552285 33 25 33.447715 25 34 C 25 34.552285 24.552285 35 24 35 C 23.447715 35 23 34.552285 23 34 C 23 33.447715 23.447715 33 24 33 z " transform="scale(0.28222223,0.28222223)" fill="url(#2)"/>
</svg>

<svg viewBox="0 0 48 48"><defs><linearGradient id="linearGradient3764" x1="1" x2="47" gradientUnits="userSpaceOnUse" gradientTransform="translate(-47.997785,0.00221467)"><stop stop-color="#e4e4e4" stop-opacity="1"/><stop offset="1" stop-color="#eee" stop-opacity="1"/></linearGradient><clipPath id="clipPath-206877239"><g transform="translate(0,-1004.3622)"><rect rx="4" y="1005.36" x="1" height="46" width="46" fill="#1890d0"/></g></clipPath><clipPath id="clipPath-223897382"><g transform="translate(0,-1004.3622)"><rect rx="4" y="1005.36" x="1" height="46" width="46" fill="#1890d0"/></g></clipPath><linearGradient id="linear0" gradientUnits="userSpaceOnUse" x1="6.778" y1="3.487" x2="6.769" y2="10.518" gradientTransform="matrix(3.729797,0,0,3.401575,-1.263157,-0.00000203445)"><stop stop-color="#e24571" stop-opacity="1"/><stop offset="1" stop-color="#7f263e" stop-opacity="1"/></linearGradient><linearGradient id="linear0" gradientUnits="userSpaceOnUse" x1="6.778" y1="3.487" x2="6.769" y2="10.518" gradientTransform="matrix(3.729797,0,0,3.401575,-1.263157,-0.00000203445)"><stop stop-color="#e24571" stop-opacity="1"/><stop offset="1" stop-color="#7f263e" stop-opacity="1"/></linearGradient></defs><g><g transform="translate(0,-1004.3622)"><path d="m 5 1006.36 c -2.216 0 -4 1.784 -4 4 l 0 37.25 c 0 2.216 1.784 4 4 4 l 38 0 c 2.216 0 4 -1.784 4 -4 l 0 -37.25 c 0 -2.216 -1.784 -4 -4 -4 l -38 0 z m -4 41.5 0 0.5 c 0 2.216 1.784 4 4 4 l 38 0 c 2.216 0 4 -1.784 4 -4 l 0 -0.5 c 0 2.216 -1.784 4 -4 4 l -38 0 c -2.216 0 -4 -1.784 -4 -4 z" opacity="0.02"/><path d="m 1 1047.61 0 0.25 c 0 2.216 1.784 4 4 4 l 38 0 c 2.216 0 4 -1.784 4 -4 l 0 -0.25 c 0 2.216 -1.784 4 -4 4 l -38 0 c -2.216 0 -4 -1.784 -4 -4 z" opacity="0.05"/><rect width="46" height="46" x="1" y="1005.61" rx="4" opacity="0.1"/></g></g><g><rect width="46" height="46" x="-46.998" y="1" rx="4" transform="matrix(0,-1,1,0,0,0)" fill="url(#linearGradient3764)" fill-opacity="1"/></g><g/><g><g clip-path="url(#clipPath-206877239)"><g opacity="0.1"><!-- color: #eeeeee --><g><path d="m 14.03 12 c -0.055 3.418 -0.051 6.832 0 10.25 c 0.047 3.289 0.219 5.867 1.656 7.875 c 1.727 2.422 4.602 4.16 8.313 5.875 c 3.703 -1.715 6.582 -3.457 8.313 -5.875 c 1.434 -2.01 1.609 -4.586 1.656 -7.875 c 0.047 -3.418 0.051 -6.832 0 -10.25 m -9.969 1 c 0.551 0 1 0.449 1 1 c 0 0.551 -0.449 1 -1 1 c -0.555 0 -1 -0.449 -1 -1 c 0 -0.551 0.445 -1 1 -1 m 0 4 c 0.551 0 1 0.449 1 1 c 0 0.551 -0.449 1 -1 1 c -0.555 0 -1 -0.449 -1 -1 c 0 -0.551 0.445 -1 1 -1 m -8 4 c 0.551 0 1 0.449 1 1 c 0 0.551 -0.449 1 -1 1 c -0.555 0 -1 -0.449 -1 -1 c 0 -0.551 0.445 -1 1 -1 m 4 0 c 0.551 0 1 0.449 1 1 c 0 0.551 -0.449 1 -1 1 c -0.555 0 -1 -0.449 -1 -1 c 0 -0.551 0.445 -1 1 -1 m 4 0 c 0.551 0 1 0.449 1 1 c 0 0.551 -0.449 1 -1 1 c -0.555 0 -1 -0.449 -1 -1 c 0 -0.551 0.445 -1 1 -1 m 4 0 c 0.551 0 1 0.449 1 1 c 0 0.551 -0.449 1 -1 1 c -0.555 0 -1 -0.449 -1 -1 c 0 -0.551 0.445 -1 1 -1 m 4 0 c 0.551 0 1 0.449 1 1 c 0 0.551 -0.449 1 -1 1 c -0.555 0 -1 -0.449 -1 -1 c 0 -0.551 0.445 -1 1 -1 m -8 4 c 0.551 0 1 0.449 1 1 c 0 0.551 -0.449 1 -1 1 c -0.555 0 -1 -0.449 -1 -1 c 0 -0.551 0.445 -1 1 -1 m 0 4 c 0.551 0 1 0.449 1 1 c 0 0.551 -0.449 1 -1 1 c -0.555 0 -1 -0.449 -1 -1 c 0 -0.551 0.445 -1 1 -1 m 0 4 c 0.551 0 1 0.449 1 1 c 0 0.551 -0.449 1 -1 1 c -0.555 0 -1 -0.449 -1 -1 c 0 -0.551 0.445 -1 1 -1 m 0 0" stroke="none" fill-rule="nonzero" fill="#000"/></g></g></g></g><g><g clip-path="url(#clipPath-223897382)"><g transform="translate(0,-1)"><!-- color: #eeeeee --><g><path d="m 14.03 12 c -0.055 3.418 -0.051 6.832 0 10.25 c 0.047 3.289 0.219 5.867 1.656 7.875 c 1.727 2.422 4.602 4.16 8.313 5.875 c 3.703 -1.715 6.582 -3.457 8.313 -5.875 c 1.434 -2.01 1.609 -4.586 1.656 -7.875 c 0.047 -3.418 0.051 -6.832 0 -10.25 m -9.969 1 c 0.551 0 1 0.449 1 1 c 0 0.551 -0.449 1 -1 1 c -0.555 0 -1 -0.449 -1 -1 c 0 -0.551 0.445 -1 1 -1 m 0 4 c 0.551 0 1 0.449 1 1 c 0 0.551 -0.449 1 -1 1 c -0.555 0 -1 -0.449 -1 -1 c 0 -0.551 0.445 -1 1 -1 m -8 4 c 0.551 0 1 0.449 1 1 c 0 0.551 -0.449 1 -1 1 c -0.555 0 -1 -0.449 -1 -1 c 0 -0.551 0.445 -1 1 -1 m 4 0 c 0.551 0 1 0.449 1 1 c 0 0.551 -0.449 1 -1 1 c -0.555 0 -1 -0.449 -1 -1 c 0 -0.551 0.445 -1 1 -1 m 4 0 c 0.551 0 1 0.449 1 1 c 0 0.551 -0.449 1 -1 1 c -0.555 0 -1 -0.449 -1 -1 c 0 -0.551 0.445 -1 1 -1 m 4 0 c 0.551 0 1 0.449 1 1 c 0 0.551 -0.449 1 -1 1 c -0.555 0 -1 -0.449 -1 -1 c 0 -0.551 0.445 -1 1 -1 m 4 0 c 0.551 0 1 0.449 1 1 c 0 0.551 -0.449 1 -1 1 c -0.555 0 -1 -0.449 -1 -1 c 0 -0.551 0.445 -1 1 -1 m -8 4 c 0.551 0 1 0.449 1 1 c 0 0.551 -0.449 1 -1 1 c -0.555 0 -1 -0.449 -1 -1 c 0 -0.551 0.445 -1 1 -1 m 0 4 c 0.551 0 1 0.449 1 1 c 0 0.551 -0.449 1 -1 1 c -0.555 0 -1 -0.449 -1 -1 c 0 -0.551 0.445 -1 1 -1 m 0 4 c 0.551 0 1 0.449 1 1 c 0 0.551 -0.449 1 -1 1 c -0.555 0 -1 -0.449 -1 -1 c 0 -0.551 0.445 -1 1 -1 m 0 0" fill="url(#linear0)" stroke="none" fill-rule="nonzero"/></g></g></g></g><g><g transform="translate(0,-1004.3622)"><path d="m 1 1043.36 0 4 c 0 2.216 1.784 4 4 4 l 38 0 c 2.216 0 4 -1.784 4 -4 l 0 -4 c 0 2.216 -1.784 4 -4 4 l -38 0 c -2.216 0 -4 -1.784 -4 -4 z" opacity="0.1"/></g></g></svg>
